X: 28321
T: Mudgee Schottische, The
R: barndance
M: 4/4
K: Gmajor
G>A|B2 B2 c>B A<e|d2 B2 B2 G>A|B2 B2 c>B c<d|e>d B>A G2 G>A|
B2 B2 c>B A<e|d2 B2 B2 G>A|B2 c>B A2 B>A|G2 B2 G2 z2||
.g2 .G2 .e2 .G2|e>d e>d B2 G>B|d>e d>B A2 B2|(3cdc B>A G2 z2|
.g2 .G2 .e2 .G2|e>d e>d B2 G>B|(3ded d>B (3cdc B>A|G2 B2 G2||

